!!!!SEGMENT: pl-kk--kk-i-386--002-003_anonim--missa-seconda-gloria.krn
!!!cenid: 18xx:4510
!!!COM: Anonim
!!!COM-rismID: pe30004985
!!!CDT:
!!!CNT:
!!!OPR: Missa seconda
!!!OTL: Gloria
!!!OMV: 003
!!!PDT:
!!!AGN: Sacred
!!!YEC: Copyright 2022 Narodowy Instytut Fryderyka Chopina (https://polishscores.org)
!!!YEM: License CC-BY-4.0 (https://creativecommons.org/licenses/by/4.0)
!!!SMS-siglum: PL-Kk
!!!SMS-shelfmark: Kk.I.386
!!!SMS-variant:
!!!SMS-altvar:
!!!SMS-shelfwork: 002-003 M
!!!NIFC-rismSourceID: 1001218240
!!!NIFC-rismChildID: 1001218243
!!!NIFC-islandoraID: pl-kk:16060
!!!URL-pdf-islandora: https://repozytorium.nifc.pl/islandora/object/pl-kk%3A16060/datastream/PDF/view
!!!URL-scan: https://polish.musicsources.pl/pl/lokalizacje/galeria/rekopisy/7134/3 @EN{Scan on Polish Music Sources Website} @PL{Skany w portalu Dziedzictwo Muzyki Polskiej w otwartym dostępie}
!!!IIIF:
!!!ONB-nifc: UWAGA: Części Missy Seconda: Rorate, Kyrie, Gloria, Graduale, Offertorium, Sanctus, Benedicuts, Agnus. Zakres skanów: S – 6-9, A – 15-19, T – 25-29, B – 35-39
!!!AIN: 1 alto 1 bass 1 soprn 1 tenor
!!!key:
**kern	**text	**kern	**text	**kern	**text	**kern	**text
*part4	*part4	*part3	*part3	*part2	*part2	*part1	*part1
*staff4	*staff4	*staff3	*staff3	*staff2	*staff2	*staff1	*staff1
*I"Basso.	*	*I"Tenore.	*	*I"Alto.	*	*I"Soprano.	*
*I'B	*	*I'T	*	*I'A	*	*I'S	*
*Ibass	*	*Itenor	*	*Ialto	*	*Isoprn	*
*ICvox	*	*ICvox	*	*ICvox	*	*ICvox	*
*clefF4	*	*clefC4	*	*clefC3	*	*clefC1	*
*k[]	*	*k[]	*	*k[]	*	*k[]	*
*C:	*	*C:	*	*C:	*	*C:	*
*M3/2	*	*M3/2	*	*M3/2	*	*M3/2	*
=1	=1	=1	=1	=1	=1	=1	=1
*2\right	*	*2\right	*	*2\right	*	*2\right	*
!LO:TX:a:t=in C.	!	!LO:TX:a:t=in C.	!	!LO:TX:a:t=in C.	!	!	!
2C/	Glo-	2G/	Glo-	2e\	Glo-	2cc\	Glo-
4C/	-ri-	4G/	-ri-	4e\	-ri-	4cc\	-ri-
4C/	-a	4G/	-a	4e\	-a	4cc\	-a
4E/	in	4G/	in	4e\	in	4cc\	in
4C/	ex-	4c\	ex-	4e\	ex-	4cc\	ex-
=2	=2	=2	=2	=2	=2	=2	=2
4F\	-cel-	4c\	-cel-	4f\	-cel-	4a\	-cel-
4E\	-sis	4c\	-sis	4g\	-sis	4cc\	-sis
2D\	De-	2d\	De-	1f	De-	2cc\	De-
2G\	.	2d\	-o	.	.	2b\	-o
=3	=3	=3	=3	=3	=3	=3	=3
2C/	-o,	2c\	et	2e\	-o	4cc\	et
.	.	.	.	.	.	4g\	in
4r	.	2c\	in	4r	.	2.ee\	ter-
4C/	in	.	.	4g\	in	.	.
4c\	ter-	4c\	ter-	4g\	ter-	.	.
4B\	-ra	4d\	-ra	4g\	-ra	4dd\	-ra
=4	=4	=4	=4	=4	=4	=4	=4
4F#X\	pax	4d\	pax	4a\	pax	4cc\	pax
4G\	ho-	4d\	ho-	4g\	ho-	4b\	ho-
!	!	!	!	!LO:LB:g=original	!	!	!
2D\	-mi-	2d\	-mi-	2g\	-mi-	2a\	-mi-
!	!	!LO:LB:g=original	!	!	!	!	!
2D\	-ni-	2d\	-ni-	2f#X\	-ni-	2a\	-ni-
!LO:LB:g=original	!	!	!	!	!	!LO:LB:g=original	!
=5	=5	=5	=5	=5	=5	=5	=5
2GG/	-bus	2B\	-bus.	2g\	-bus,	2g\	-bus,
2r	.	2r	.	2r	.	2dd\	et
2r	.	2r	.	2r	.	2dd\	in
=6	=6	=6	=6	=6	=6	=6	=6
2G\	in	2d\	in	1b	pax	2gg\	ter-
4G\	ter-	4d\	ter-	.	.	2dd\	-ra
4G\	-ra	4d\	-ra	.	.	.	.
4F#X\	pax	4d\	pax	2a\	ho-	4dd\	pax
4D\	ho-	4d\	ho-	.	.	4cc\	ho-
=7	=7	=7	=7	=7	=7	=7	=7
2G\	-mi-	2d\	-mi-	2g\	-mi-	2b\	-mi-
4Fn\	-ni-	4d\	-ni-	4g\	-ni-	4b\	-ni-
4E\	-bus	4c\	-bus	4g\	-bus	4cc\	-bus
4D/	bo-	4B\	bo-	4g\	bo-	4dd\	bo-
4C/	-ne	4c\	-ne	4g\	-ne	4ee\	-ne
=8	=8	=8	=8	=8	=8	=8	=8
1BB	bo-	[2.d\	bo-	1g	bo-	2.ff\	bo-
.	.	4d\]	.	.	.	4ff\	-ne
4C/	-ne	(4c\	-ne	2g\	-ne	4ee\	bo-
4G\	.	4B\)	.	.	.	4dd\	-ne
!	!	!LO:LB:g=original	!	!	!	!	!
=9	=9	=9	=9	=9	=9	=9	=9
4A\	vo-	4c\	vo-	4e\	vo-	4cc\	vo-
4F\	-lun-	4f\	-lun-	4a\	-lun-	4dd\	-lun-
2G\	-ta-	2e\	-ta-	1g	-ta-	2cc\	-ta-
2GG/	.	2d\	.	.	.	2b\	.
!LO:LB:g=original	!	!	!	!LO:LB:g=original	!	!LO:LB:g=original	!
=10	=10	=10	=10	=10	=10	=10	=10
4C/	-tis,	4c\	-tis	2g\	-tis	2cc\	-tis
4c\	Lau-	4e\	Lau-	.	.	.	.
4c\	-da-	4e\	-da-	4r	.	2r	.
4c\	-mus	4e\	-mus	4e\	Lau-	.	.
2c\	te	2e\	te,	4cc\	-da-	2r	.
.	.	.	.	4a\	-mus	.	.
=11	=11	=11	=11	=11	=11	=11	=11
!	!	!	!	!	!	!LO:TX:a:t=5.	!
1B	be-	1e	be-	2.g#X\	te	00.r	.
.	.	.	.	4d\	be-	.	.
2B\	-ne-	(4e\	-ne-	4f#X\	.	.	.
.	.	4d\)	.	4g#X\	-ne-	.	.
=12	=12	=12	=12	=12	=12	=12	=12
4A\	-di-	4c\	-di-	4a\	-di-	.	.
4B\	.	4d\	.	4g#X\	.	.	.
2A\	-ci-	2c\	-ci-	2a\	-ci-	.	.
2A\	-mus	2c\	-mus	4c\	-mus	.	.
.	.	.	.	4d\	.	.	.
=13	=13	=13	=13	=13	=13	=13	=13
2G#X\	te	2B\	te,	(4e\	te,	.	.
.	.	.	.	4g#X\)	.	.	.
4G#\	a-	4B\	a-	4g#\	a-	.	.
4G#\	-do-	4B\	-do-	4b\	-do-	.	.
!	!	!LO:LB:g=original	!	!	!	!	!
4G#\	-ra-	4B\	-ra-	4g#\	-ra-	.	.
4G#\	-mus	4B\	-mus	4e\	-mus	.	.
!	!	!	!	!LO:LB:g=original	!	!	!
=14	=14	=14	=14	=14	=14	=14	=14
4A\	te,	4c\	te,	4a\	te	.	.
4A\	glo-	4c\	glo-	4g#X\	glo-	.	.
!LO:LB:g=original	!	!	!	!	!	!	!
2A\	-ri-	2c\	-ri-	(4a\	-ri-	.	.
.	.	.	.	4gn\)	.	.	.
4A\	-fi-	4d\	.	4fn\	-fi-	.	.
4Gn\	.	4e\	-fi-	4e\	.	.	.
=15	=15	=15	=15	=15	=15	=15	=15
4A\	-ca-	4f\	-ca-	(4d\	-ca-	1.r	.
4B\	.	4d\	.	4f\)	.	.	.
2A\	.	2c\	.	2e\	.	.	.
2G#X\	-mus	2B\	-mus	2e\	-mus	.	.
=16	=16	=16	=16	=16	=16	=16	=16
2A\	te,	(4c\	te,	2a\	te,	2r	.
.	.	4e\)	.	.	.	.	.
2A\	gra-	2e\	gra-	2a\	gra-	2cc\	Gra-
4A\	-ti-	4e\	-ti-	4a\	-ti-	4cc\	-ti-
4A\	-as	4e\	-as	4a\	-as	4cc\	-as
=17	=17	=17	=17	=17	=17	=17	=17
2E\	a-	2c\	a-	2g\	a-	2cc\	a-
4E\	.	2c\	-gi-	2g\	-gi-	2cc\	-gi-
4C/	.	.	.	.	.	.	.
4D/	-gi-	2c\	-mus	2g\	-mus	4cc\	-mus
4E/	-mus	.	.	.	.	4b-X\	.
!	!	!LO:LB:g=original	!	!	!	!	!
=18	=18	=18	=18	=18	=18	=18	=18
2F\	ti-	2c\	ti-	2g\	ti-	2b-X\	ti-
2F\	-bi	2c\	-bi,	4f\	.	2a\	-bi
.	.	.	.	4a\	-bi	.	.
!	!	!	!	!LO:LB:g=original	!	!	!
4E\	pro-	4c#X\	pro-	4a\	pro-	4a\	pro-
4D\	-pter	4d\	-pter	4a\	-pter	4a\	-pter
!LO:LB:g=original	!	!	!	!	!	!	!
=19	=19	=19	=19	=19	=19	=19	=19
2C#X/	ma-	1e	ma-	1a	ma-	1a	ma-
4C#/	.	.	.	.	.	.	.
4AA/	.	.	.	.	.	.	.
4BB/	-gnam	2e\	-gnam	2a\	-gnam	2a\	-gnam
4C#/	.	.	.	.	.	.	.
!	!	!	!	!	!	!LO:LB:g=original	!
=20	=20	=20	=20	=20	=20	=20	=20
4D\	glo-	4.d\	glo-	4.a\	glo-	4.ff\	glo-
4E\	.	.	.	.	.	.	.
.	.	8c#X\	.	8g\	.	8ee\	.
4F\	.	4d\	.	2f\	.	2.dd\	-ri-
4D\	.	4A\	.	.	.	.	.
4E\	-ri-	4A\	-ri-	4g\	-ri-	.	.
4F\	-am	4d\	-am	4a\	-am	4dd\	-am
=21	=21	=21	=21	=21	=21	=21	=21
2G\	tu-	4d\	tu-	4b-X\	tu-	4dd\	tu-
.	.	4B-X\	.	4g\	.	4ee\	.
2A\	.	1A	.	2f\	.	2dd\	.
2AA/	.	.	.	2e\	.	2cc#X\	.
=22	=22	=22	=22	=22	=22	=22	=22
2D\	-am	2A\	-am,	2f\	-am,	2dd\	-am,
4F\	Do-	2r	.	2a\	Do-	2r	.
4E\	.	.	.	.	.	.	.
4F\	-mi-	2r	.	4a\	-mi-	2r	.
4D\	-ne	.	.	4a\	-ne	.	.
!	!	!LO:LB:g=original	!	!LO:LB:g=original	!	!	!
=23	=23	=23	=23	=23	=23	=23	=23
!	!	!	!	!	!	!LO:TX:a:t=6	!
4C#X/	Do-	2e\	Do-	4.a\	Do-	00.r	.
4E/	.	.	.	.	.	.	.
.	.	.	.	8a\	-mi-	.	.
!LO:LB:g=original	!	!	!	!	!	!	!
4AA/	.	4e\	-mi-	2a\	-ne	.	.
4BB/	.	4e\	-ne	.	.	.	.
4C#X/	-mi-	4e\	De-	4a\	De-	.	.
4AA/	-ne	4e\	-us	4g\	-us	.	.
=24	=24	=24	=24	=24	=24	=24	=24
4D/	Rex	4d\	Rex	4.f\	Rex	.	.
4C#X/	.	4c#X\	ce-	.	.	.	.
.	.	.	.	8g\	ce-	.	.
4D/	.	1d	-les-	1f	-le-	.	.
4E\	.	.	.	.	.	.	.
4F\	.	.	.	.	.	.	.
4G\	ce-	.	.	.	.	.	.
=25	=25	=25	=25	=25	=25	=25	=25
4A\	-les-	2c#X\	-tis	2e\	-stis,	.	.
4AA/	-tis	.	.	.	.	.	.
4A\	De-	4c#\	De-	4e\	De-	.	.
4G\	-us	4c#\	-us	4e\	-us.	.	.
4F\	Pa-	4c#\	Pa-	4e\	Pa-	.	.
8E\	-ter	8c#\	-ter	8e\	-ter	.	.
8E\	om-	8c#\	om-	8e\	om-	.	.
=26	=26	=26	=26	=26	=26	=26	=26
4D\	-ni-	4d\	-ni	4f\	-ni	.	.
4D\	-po-	4d\	po-	4f\	po-	.	.
4d\	-tens	4d\	-ten	4f\	-tens	.	.
4c\	Do-	4d\	Do-	4f\	Do-	.	.
4B-X\	-mi-	4e\	-mi-	4g\	-mi-	.	.
4A\	-ne	4f\	-ne	4a\	-ne	.	.
!LO:LB:g=original	!	!LO:LB:g=original	!	!LO:LB:g=original	!	!	!
=27	=27	=27	=27	=27	=27	=27	=27
4G\	fi-	1e	fi-	1b-X	fi-	0.r	.
4F\	.	.	.	.	.	.	.
4E\	.	.	.	.	.	.	.
4D\	.	.	.	.	.	.	.
4E\	.	2e\	-li	2b-\	-li	.	.
4C\	-li	.	.	.	.	.	.
=28	=28	=28	=28	=28	=28	=28	=28
4F\	u-	4d\	u-	4a\	u-	.	.
4D\	.	4e\	-ni-	4b-X\	-ni-	.	.
4C/	.	2d\	-ge-	2a\	-ge-	.	.
4BB-X/	-ni-	.	.	.	.	.	.
4C/	-ge-	2cn\	-ni-	2g\	-ni-	.	.
4C/	-ni-	.	.	.	.	.	.
=29	=29	=29	=29	=29	=29	=29	=29
2F\	-te,	2f\	-te,	2f\	-te,	2r	.
2F\	Do-	2f\	Do-	2a\	Do-	2cc\	Do-
4F\	-mi-	4f\	-mi-	4a\	-mi-	4cc\	-mi-
4F\	-ne	4f\	-ne	4a\	-ne	4cc\	-ne
=30	=30	=30	=30	=30	=30	=30	=30
4E\	fi-	4c\	fi-	4g\	fi-	4cc\	fi-
4E\	-li	4c\	-li	4g\	-li	4cc\	-li
4D/	u-	2c\	u-	2g\	u-	2cc\	u-
4C/	.	.	.	.	.	.	.
4BB/	.	2d\	-ni-	2g\	-ni-	4.ff\	.
4GG/	-ni-	.	.	.	.	.	.
.	.	.	.	.	.	8ee\	-ni-
!LO:LB:g=original	!	!	!	!	!	!LO:LB:g=original	!
=31	=31	=31	=31	=31	=31	=31	=31
2C/	-ge-	2c\	-ge-	2g\	-ge-	2ee\	-ge-
4c\	-ni-	4c\	-ni-	2g\	-ni-	4ee\	-ni-
4B-X\	-te	4c\	-te	.	.	4ee\	-te
4A\	fi-	4c\	fi-	2g\	-te	4ee\	fi-
4G\	-li	4c\	-li	.	.	4ee\	-li
!	!	!LO:LB:g=original	!	!LO:PB:g=original	!	!	!
=32	=32	=32	=32	=32	=32	=32	=32
4A\	u-	4c\	u-	4f\	u-	4ff\	u-
4A\	-ni-	4c\	-ni-	4f\	-ni-	4cc\	-ni-
2A\	-ge-	2c\	-ge-	2f\	-ge-	4.cc\	-ge-
.	.	.	.	.	.	8cc\	-ni-
4G\	-ni-	4c\	-ni-	4g\	-ni-	2cc\	-te
4F\	-te	4c\	-te	4a\	-te	.	.
=33	=33	=33	=33	=33	=33	=33	=33
4E\	Je-	4c\	Je-	4g\	Je-	4cc\	Je-
4F\	-su	4f\	-su	4a\	-su	4dd\	-su
2G\	Chri-	2e\	Chri-	1g	Chri-	2cc\	Chri-
2GG/	.	2d\	.	.	.	2bn\	.
=34	=34	=34	=34	=34	=34	=34	=34
2C/	-ste,	2c\	-ste.	2g\	-ste,	2cc\	-ste
4.E\	Quo-	4.c\	Quo-	4g\	Quo-	4.ee\	Quo-
.	.	.	.	4g\	-ni-	.	.
8E\	-ni-	8c\	-ni-	.	.	8ee\	-ni-
2C/	-am	2c\	-am	2g\	-am	2ee\	-am
=35	=35	=35	=35	=35	=35	=35	=35
4.G\	Quo-	4.B\	Quo-	4.g\	Quo-	4.dd\	quo-
8G\	-ni-	8B\	-ni-	8g\	-ni-	8dd\	-ni-
!LO:LB:g=original	!	!	!	!	!	!	!
4G\	-am	4B\	-am	4g\	-am	4dd\	-am
4G\	tu	4B\	tu	4g\	tu	4dd\	tu
!	!	!	!	!	!	!LO:LB:g=original	!
4G\	so-	4B\	so-	4g\	so-	4.dd\	so-
4G\	-lus	4d\	-lus	4g\	-lus,	.	.
.	.	.	.	.	.	8ff\	-lus
=36	=36	=36	=36	=36	=36	=36	=36
2c\	san-	2d\	san-	2g\	san-	2ff\	san-
!	!	!LO:LB:g=original	!	!	!	!	!
2C/	-ctus	2c\	-ctus	2g\	-ctus	2ee\	-ctus
!	!	!	!	!LO:LB:g=original	!	!	!
4C/	so-	4c\	so-	4g\	so-	4ee\	so-
4C/	-lus	4c\	-lus	4g\	-lus,	4ee\	-lus
=37	=37	=37	=37	=37	=37	=37	=37
1G	Do-	2c\	Do-	2g\	Do-	2ee\	Do-
.	.	4B\	-mi-	4g\	-mi-	4dd\	-mi-
.	.	4B\	-nus	4g\	-nus	4dd\	-nus
2G#X\	-mi-	4B\	so-	4b\	so-	4dd\	so-
.	.	4e\	-lus,	4b\	-lus	4dd\	-lus
=38	=38	=38	=38	=38	=38	=38	=38
4A\	-nus,	2e\	so-	(4b\	so-	4.dd\	so-
!	!	!	!	!LO:TX:t=P:problem:niepotrzebna sylaba "lus"	!	!	!
4AA/	tu	.	.	4a\)	-lus	.	.
.	.	.	.	.	.	8cc\	.
2AA/	so-	2e\	-lus	2a\	lus	2cc\	-lus
4A\	-lus	2e\	al-	2a\	al-	2cc\	al-
4Gn\	al-	.	.	.	.	.	.
=39	=39	=39	=39	=39	=39	=39	=39
4F#X\	-tis-	4d\	-tis-	2a\	-tis-	4cc\	-tiſ-
4E\	.	4d\	-si-	.	.	4cc\	-si-
4F#\	-si-	2d\	-mus	4a\	-si-	2cc\	-mus
4D\	-mus	.	.	4a\	-mus	.	.
4E\	Je-	4d\	Je-	4a\	Je-	2cc\	Je-
4F#\	-su	4d\	-su	4a\	-su	.	.
!LO:LB:g=original	!	!	!	!	!	!	!
=40	=40	=40	=40	=40	=40	=40	=40
4G\	Je-	4d\	Je-	4g\	Je-	4b\	.
4E\	-su	4c\	-su	4g\	-su	4cc\	-su
1D	Chri-	1d	Chri-	2g\	Chri-	2b\	Chri-
.	.	.	.	2f#X\	.	2a\	.
!	!	!	!	!LO:LB:g=original	!	!LO:PB:g=original	!
=41	=41	=41	=41	=41	=41	=41	=41
4GG/	-ste,	4B\	-ste,	2g\	-ste	4g\	-ste,
4G\	Cum	4d\	cum	.	.	4r	.
!	!	!LO:LB:g=original	!	!	!	!	!
4G\	san-	4d\	san-	2b\	Je-	2r	.
4G\	-cto	4d\	-cto	.	.	.	.
4F#X\	ſpi-	4d\	ſpi-	2b\	-su	2r	.
4E\	-ri-	4d\	-ri-	.	.	.	.
=42	=42	=42	=42	=42	=42	=42	=42
!	!	!	!	!	!	!LO:TX:a:t=4.	!
4D#X\	-tu	4d\	-tu,	4b\	Je-	00.r	.
4D#\	in	4d\	in	4b\	-su	.	.
4D#/	glo-	2d\	glo-	2b\	Chri-	.	.
4BB/	.	.	.	.	.	.	.
4C#X/	-ri-	4d#X\	-ri-	2a\	.	.	.
4D#/	-a	4d#\	-a	.	.	.	.
=43	=43	=43	=43	=43	=43	=43	=43
4E\	Cum	2e\	Cum	4g\	-ste,	.	.
4G\	.	.	.	4g\	cum	.	.
4B\	san-	4d#X\	san-	4f#X\	san-	.	.
4BB/	-cto	4d#\	-cto	4f#\	-cto	.	.
4D#X/	ſpi-	4d#\	ſpi-	4f#\	spi-	.	.
4BB/	-ri-	4d#\	-ri-	4f#\	-ri-	.	.
=44	=44	=44	=44	=44	=44	=44	=44
4E\	-tu,	4B\	-tu,	4g\	-tu	.	.
4E\	in	4B\	in	4g\	in	.	.
!LO:LB:g=original	!	!	!	!	!	!	!
2E\	glo-	2B\	glo-	2g\	glo-	.	.
4C/	-ri-	4e\	-ri-	4a\	-ri-	.	.
4BB/	-a	4e\	-a	4b\	-a	.	.
!	!	!LO:LB:g=original	!	!	!	!	!
=45	=45	=45	=45	=45	=45	=45	=45
4AA/	De-	4e\	De-	4cc\	De-	.	.
4A\	-i	4f#X\	-i	4b\	-i	.	.
!	!	!	!	!LO:LB:g=original	!	!	!
4B\	Pa-	2e\	Pa-	2g\	Pa-	.	.
4A\	.	.	.	.	.	.	.
4B\	.	2d#X\	.	2f#X\	.	.	.
4BB/	.	.	.	.	.	.	.
=46	=46	=46	=46	=46	=46	=46	=46
2E\	-tris,	2e\	-tris	2e\	-tris	2r	.
2E\	Quo-	2B\	Quo-	2g\	Quo-	2ee\	Quo-
2E\	-ni-	2B\	-ni-	2g\	-ni-	2ee\	-ni-
=47	=47	=47	=47	=47	=47	=47	=47
4B\	-am	4B\	-am	4f#X\	-am	4dd#X\	-am
4B\	tu	4B\	tu	4f#\	tu	4dd#\	tu
2B\	so-	2B\	so-	2f#\	so-	2dd#\	so-
2BB/	-lus	2B\	-lus	2f#\	-lus	2dd#\	-lus
=48	=48	=48	=48	=48	=48	=48	=48
4E\	so-	4B\	so-	4g\	so-	4ee\	so-
4D#X\	-lus	4B\	-lus	4a\	-lus	4ff#X\	-lus
2E\	san-	1B	ſan-	2a\	san-	2ff#\	an-
2G\	.	.	.	2g\	.	2ee\	.
!LO:LB:g=original	!	!	!	!	!	!	!
=49	=49	=49	=49	=49	=49	=49	=49
2B\	-ctus	2B\	-ctus,	2g#X\	-ctus	2dd#X\	-ctus
2B\	tu	2B\	tu	2g#\	tu	2dd#\	tu
4BB/	so-	4B\	so-	4g#\	so-	4dd#\	so-
4BB/	-lus	4B\	-lus	4g#\	-lus	4dd#\	-lus
!	!	!	!	!	!	!LO:LB:g=original	!
=50	=50	=50	=50	=50	=50	=50	=50
2E\	Do-	2.B\	Do-	2.a\	Do-	2.ee\	Do-
2E\	-mi-	.	.	.	.	.	.
.	.	4e\	-mi-	4a\	-mi-	4ee\	-mi-
!	!	!LO:LB:g=original	!	!LO:LB:g=original	!	!	!
(4F#X\	-nus	2e\	-nus	2gn\	-nus	2ddn\	-nus
4G#X\)	.	.	.	.	.	.	.
=51	=51	=51	=51	=51	=51	=51	=51
4A\	so-	4e\	so-	4fn\	so-	4cc\	so-
4D\	.	4f\	.	4g\	.	4dd\	.
2E\	-lus	2e\	-lus	2f\	-lus	2cc\	-lus
2E\	al-	2e\	al-	2e\	al-	2b\	al-
=52	=52	=52	=52	=52	=52	=52	=52
2AA/	-tis-	2e\	-tis-	2d\	-tis-	2a\	-tis-
4A\	-si-	4e\	-si-	4f\	-si-	4cc\	-si-
4A\	-mus	4e\	-mus	4f\	-mus	4cc\	-mus
4A\	Je-	4e\	Je-	4f\	Je-	4cc\	Je-
4A\	-su	4e\	-su	4f\	-su	4cc\	-su
=53	=53	=53	=53	=53	=53	=53	=53
1E	Chri-	4e\	Je-	4f\	Je-	4cc\	Je-
.	.	4e\	-su	4e\	-su	4b\	-su
.	.	2e\	Chri-	1g	Chri-	2dd\	Chri-
2G#X\	-ste	2e\	-ste,	.	.	2dd\	-ste
!LO:PB:g=original	!	!	!	!	!	!	!
=54	=54	=54	=54	=54	=54	=54	=54
2A\	cum	2e\	cum	2f\	-ste,	2cc\	cum
4A\	san-	4e\	san-	4f\	san-	4cc\	san-
4G#X\	-cto	4e\	-cto	4g\	-ctus	4dd\	-cto
4A\	ſpi-	4e\	ſpi-	4f\	Spi-	4cc\	spi-
4AA/	-ri-	4e\	-ri	4f\	-ri-	4cc\	-ri-
!	!	!LO:PB:g=original	!	!	!	!LO:LB:g=original	!
=55	=55	=55	=55	=55	=55	=55	=55
4E\	-tu	4e\	tu	4e\	-tu	4b\	-tu,
4E\	in	4e\	in	4e\	in	4b\	in
!	!	!	!	!LO:LB:g=original	!	!	!
2E\	glo-	2e\	glo-	2e\	glo-	2b\	glo-
4G#X\	-ri-	4e\	-ri-	4e\	-ri-	4b\	-ri-
4E\	-a	4e\	-a	4e\	-a	4b\	-a
=56	=56	=56	=56	=56	=56	=56	=56
4A\	De-	4e\	De-	4a\	De-	4cc\	De-
4AA/	-i	4e\	-i	4a\	-i	4cc\	-i
2A\	Pa-	2e\	Pa-	2a\	Pa-	2cc\	Pa-
4A\	.	2e\	-tris	2a\	-tris,	2cc\	-tris
4Gn\	-tris	.	.	.	.	.	.
=57	=57	=57	=57	=57	=57	=57	=57
4Fn\	a-	2d\	a-	1a	a-	2dd\	a-
4E\	.	.	.	.	.	.	.
4D\	.	4f\	-men	.	.	4dd\	-men
4F\	.	4f\	a-	.	.	4dd\	a-
4G\	.	4e\	.	4g\	.	4cc\	.
4GG/	.	4d\	.	4f\	.	4b\	.
!LO:LB:g=original	!	!	!	!	!	!	!
=58	=58	=58	=58	=58	=58	=58	=58
2C/	-men	2c\	-men	2e\	-men,	2cc\	-men,
2C/	Cum	2c\	a-	2g\	Cum	2ee\	cum
4C/	san-	2c\	-men	4g\	san-	4ee\	san-
4C/	-cto	.	.	4g\	-cto	4ee\	-cto
=59	=59	=59	=59	=59	=59	=59	=59
1G	ſpi-	2c\	a-	1g	ſpi-	2ee\	spi-
.	.	2B\	.	.	.	2dd\	.
2G\	-ri-	2d\	.	2g\	-ri-	2ff\	-ri-
!	!	!LO:LB:g=original	!	!	!	!LO:LB:g=original	!
=60	=60	=60	=60	=60	=60	=60	=60
4c\	-tu,	4.d\	-men,	1g	-tu	4ff\	-tu
4C/	in	.	.	.	.	4ee\	in
.	.	8c\	in	.	.	.	.
2C/	glo-	2c\	glo-	.	.	2gg\	glo-
4E/	-ri-	4c\	-ri-	2g\	in	4gg\	-ri-
4C/	-a	4e\	-a	.	.	4gg\	-a
!	!	!	!	!LO:LB:g=original	!	!	!
=61	=61	=61	=61	=61	=61	=61	=61
1F	De-	1d	De-	2.a\	glo-	1ff	De-
.	.	.	.	4a\	-ri-	.	.
2F#X\	-i	2c\	-i	2a\	-a	2ee\	-i
=62	=62	=62	=62	=62	=62	=62	=62
2G\	Pa-	2c\	Pa-	1g	De-	2ee\	Pa-
2GG/	.	2B\	.	.	.	2dd\	.
2E\	-tris	2c\	-tris	2g\	-i	2cc\	-tris
=63	=63	=63	=63	=63	=63	=63	=63
2F\	a-	2c\	a-	1a	Pa-	1cc	a-
!LO:LB:g=original	!	!	!	!	!	!	!
4A\	.	2f\	.	.	.	.	.
4F\	.	.	.	.	.	.	.
2E\	-men	2g\	-men	2b-X\	-tris	2cc\	-men
=64	=64	=64	=64	=64	=64	=64	=64
2F\	a-	2f\	a-	1a	a-	2cc\	a-
4F\	.	2c\	.	.	.	2ff\	-men
4E\	.	.	.	.	.	.	.
4D\	.	2d\	-men	2a\	-men	4ff\	a-
4C\	.	.	.	.	.	4ff\	-men
=65	=65	=65	=65	=65	=65	=65	=65
1BB	.	1d	a-	1g	a-	1ff	a-
2B\	-men	2d\	-men	2g\	-men	2ff\	-men
!	!	!LO:LB:g=original	!	!	!	!LO:LB:g=original	!
=66	=66	=66	=66	=66	=66	=66	=66
4c\	a-	4c\	a-	4g\	a-	4ee\	a-
4F\	.	4f\	.	4a\	.	4dd\	.
2G\	.	2e\	.	1g	.	2cc\	.
2GG/	.	2d\	.	.	.	2b\	.
=67	=67	=67	=67	=67	=67	=67	=67
2C/	-men	2e\	-men	2g\	-men	2cc\	-men
2r	.	2r	.	2r	.	2r	.
2G\	a-	2d\	a-	2g\	a-	2b\	a-
=68	=68	=68	=68	=68	=68	=68	=68
1C	-men.	1e	-men.	1a	-men.	1cc	-men.
2r	.	2r	.	2ryy	.	2r	.
==	==	==	==	==	==	==	==
*-	*-	*-	*-	*-	*-	*-	*-
!!!system-decoration: [(s1,s2,s3,s4)]
!!!ENC: Anastazja Marusiak
!!!END: 2023-11-01
!!!ENC: Leszek Kubiak
!!!END: 2024-06-25
